X:1
T:Denby, 66.66 D
T:Denby, 66.66 D
T:Charles J. Dale, 1904
T:Public Domain Courtesy of the Cyber Hymnal™
C:Charles J. Dale, 1904
Z:Public Domain
Z:Courtesy of the Cyber Hymnal™
%%score ( 1 2 ) ( 3 4 )
L:1/8
Q:1/4=115
M:4/4
K:Eb
V:1 treble 
V:2 treble 
V:3 bass 
V:4 bass 
V:1
 [EB]2 | [Ec]2 [DB]2 E2 [DF]2 | [EG]6 [EG]2 | [EA]2 [EG]2 [CF]2 C2 | [B,D]6 [B,B]2 | %5
 [Ec]2 [DB]2 E2 [DF]2 | [EG]2 =A2 [GB]2 [=Ec]2 | [Fd]4 [Ec]4 | [DB]6 [_DB]2 | %9
 [Cc]2 [=EB]2 [FA]2 [EG]2 | [FA]6 [EA]2 | [DB]2 [DA]2 [EG]2 [DF]2 | [EG]6 [DB]2 | %13
 [Ee]2 [EB]2 [EA]2 [EG]2 | [CF]2 [Dc]2 [EB]2 E2 | [EG]4 [DF]4 x2 | E6 |] %17
V:2
 x2 | x4 E2 x2 | x8 | x6 C2 | x8 | x4 E2 x2 | x2 (G^F) x4 | x8 | x8 | x8 | x8 | x8 | x8 | x8 | %14
 x6 E2 | x10 | E6 |] %17
V:3
 [E,G,]2 | [A,,A,]2 [B,,A,]2 [C,G,]2 [B,,B,]2 | [E,B,]6 [E,B,]2 | [C,A,]2 [B,,B,]2 [A,,C]2 (A,G,) | %4
 [B,,F,]6 [G,,E,]2 | [A,,E,]2 [B,,A,]2 [C,G,]2 [B,,B,]2 | [E,B,]2 [D,D]2 [G,D]2 [G,B,]2 | %7
 [F,B,]4 [F,=A,]4 | [B,,B,]6 [G,,E,]2 | [C,=E,]2 [C,G,]2 [C,C]2 [C,B,]2 | [F,A,]6 [F,C]2 | %11
 [B,,B,]2 [B,,F,]2 [B,,G,]2 [B,,A,]2 | [E,G,]6 [B,,A,]2 | [C,G,]2 [_D,G,]2 [C,A,]2 [B,,B,]2 | %14
 [A,,C]2 [F,,A,]2 [G,,B,]2 [A,,C]2 | B,4 (z2 A,2) x2 | [E,G,]6 |] %17
V:4
 x2 | x8 | x8 | x6 A,,2 | x8 | x8 | x8 | x8 | x8 | x8 | x8 | x8 | x8 | x8 | x8 | B,,6 B,,4 | x6 |] %17

